images/indikatorenset/4296.svg

<?xml version="1.0" standalone="no"?><!DOCTYPE svg PUBLIC "-//W3C//DTD SVG 1.1//EN" "http://www.w3.org/Graphics/SVG/1.1/DTD/svg11.dtd"><svg xmlns:xlink="http://www.w3.org/1999/xlink" version="1.1" class="highcharts-root" style="font-family:arial;font-size:9pt;" xmlns="http://www.w3.org/2000/svg" width="485" height="415"><desc>Created with Highstock 5.0.14</desc><defs><clipPath id="highcharts-r1l87s9-7"><rect x="0" y="0" width="432" height="222" fill="none"></rect></clipPath><clipPath id="highcharts-r1l87s9-8"><rect x="0" y="0" width="432" height="222" fill="none"></rect></clipPath></defs><rect fill="#fbfbfb" class="highcharts-background" x="0" y="0" width="485" height="415" rx="0" ry="0"></rect><rect fill="none" class="highcharts-plot-background" x="43" y="109" width="432" height="222"></rect><g class="highcharts-label" style="cursor:pointer;" transform="translate(10,451)"><text x="0" y="0"><tspan>&gt; Indikator-Details</tspan></text></g><g class="highcharts-pane-group"></g><g class="highcharts-grid highcharts-xaxis-grid "><path fill="none" class="highcharts-grid-line" d="M 69.5 109 L 69.5 331" opacity="1"></path><path fill="none" class="highcharts-grid-line" d="M 96.5 109 L 96.5 331" opacity="1"></path><path fill="none" class="highcharts-grid-line" d="M 123.5 109 L 123.5 331" opacity="1"></path><path fill="none" class="highcharts-grid-line" d="M 150.5 109 L 150.5 331" opacity="1"></path><path fill="none" class="highcharts-grid-line" d="M 177.5 109 L 177.5 331" opacity="1"></path><path fill="none" class="highcharts-grid-line" d="M 204.5 109 L 204.5 331" opacity="1"></path><path fill="none" class="highcharts-grid-line" d="M 231.5 109 L 231.5 331" opacity="1"></path><path fill="none" class="highcharts-grid-line" d="M 258.5 109 L 258.5 331" opacity="1"></path><path fill="none" class="highcharts-grid-line" d="M 285.5 109 L 285.5 331" opacity="1"></path><path fill="none" class="highcharts-grid-line" d="M 312.5 109 L 312.5 331" opacity="1"></path><path fill="none" class="highcharts-grid-line" d="M 339.5 109 L 339.5 331" opacity="1"></path><path fill="none" class="highcharts-grid-line" d="M 366.5 109 L 366.5 331" opacity="1"></path><path fill="none" class="highcharts-grid-line" d="M 393.5 109 L 393.5 331" opacity="1"></path><path fill="none" class="highcharts-grid-line" d="M 420.5 109 L 420.5 331" opacity="1"></path><path fill="none" class="highcharts-grid-line" d="M 447.5 109 L 447.5 331" opacity="1"></path><path fill="none" class="highcharts-grid-line" d="M 474.5 109 L 474.5 331" opacity="1"></path><path fill="none" class="highcharts-grid-line" d="M 42.5 109 L 42.5 331" opacity="1"></path></g><g class="highcharts-grid highcharts-yaxis-grid "><path fill="none" stroke="#e6e6e6" stroke-width="1" class="highcharts-grid-line" d="M 43 331.5 L 475 331.5" opacity="1"></path><path fill="none" stroke="#e6e6e6" stroke-width="1" class="highcharts-grid-line" d="M 43 257.5 L 475 257.5" opacity="1"></path><path fill="none" stroke="#e6e6e6" stroke-width="1" class="highcharts-grid-line" d="M 43 183.5 L 475 183.5" opacity="1"></path><path fill="none" stroke="#e6e6e6" stroke-width="1" class="highcharts-grid-line" d="M 43 108.5 L 475 108.5" opacity="1"></path></g><g class="highcharts-grid highcharts-yaxis-grid "></g><rect fill="none" class="highcharts-plot-border" x="43" y="109" width="432" height="222"></rect><g class="highcharts-axis highcharts-xaxis "><path fill="none" class="highcharts-axis-line" stroke="#ccd6eb" stroke-width="1" d="M 43 331.5 L 475 331.5"></path></g><g class="highcharts-axis highcharts-yaxis "><path fill="none" class="highcharts-axis-line" d="M 43 109 L 43 331"></path></g><g class="highcharts-axis highcharts-yaxis "><path fill="none" class="highcharts-axis-line" d="M 475 109 L 475 331"></path></g><g class="highcharts-series-group"><g class="highcharts-series highcharts-series-0 highcharts-column-series highcharts-color-undefined " transform="translate(43,109) scale(1 1)" clip-path="url(#highcharts-r1l87s9-8)"><rect x="7" y="167" width="13" height="27" fill="#FF8028" class="highcharts-point"></rect><rect x="34" y="156" width="13" height="34" fill="#FF8028" class="highcharts-point"></rect><rect x="61" y="142" width="13" height="41" fill="#FF8028" class="highcharts-point"></rect><rect x="88" y="128" width="13" height="47" fill="#FF8028" class="highcharts-point"></rect><rect x="115" y="102" width="13" height="55" fill="#FF8028" class="highcharts-point"></rect><rect x="142" y="84" width="13" height="60" fill="#FF8028" class="highcharts-point"></rect><rect x="169" y="75" width="13" height="62" fill="#FF8028" class="highcharts-point"></rect><rect x="196" y="59" width="13" height="64" fill="#FF8028" class="highcharts-point"></rect><rect x="223" y="47" width="13" height="64" fill="#FF8028" class="highcharts-point"></rect><rect x="250" y="46" width="13" height="63" fill="#FF8028" class="highcharts-point"></rect><rect x="277" y="39" width="13" height="63" fill="#FF8028" class="highcharts-point"></rect><rect x="304" y="37" width="13" height="63" fill="#FF8028" class="highcharts-point"></rect><rect x="331" y="38" width="13" height="63" fill="#FF8028" class="highcharts-point"></rect><rect x="358" y="38" width="13" height="61" fill="#FF8028" class="highcharts-point"></rect><rect x="385" y="39" width="13" height="61" fill="#FF8028" class="highcharts-point"></rect><rect x="412" y="31" width="13" height="61" fill="#FF8028" class="highcharts-point"></rect></g><g class="highcharts-markers highcharts-series-0 highcharts-column-series highcharts-color-undefined " transform="translate(43,109) scale(1 1)" clip-path="none"></g><g class="highcharts-series highcharts-series-1 highcharts-column-series highcharts-color-undefined " transform="translate(43,109) scale(1 1)" clip-path="url(#highcharts-r1l87s9-8)"><rect x="7" y="194" width="13" height="29" fill="#DC440E" class="highcharts-point"></rect><rect x="34" y="190" width="13" height="33" fill="#DC440E" class="highcharts-point"></rect><rect x="61" y="183" width="13" height="40" fill="#DC440E" class="highcharts-point"></rect><rect x="88" y="175" width="13" height="48" fill="#DC440E" class="highcharts-point"></rect><rect x="115" y="157" width="13" height="66" fill="#DC440E" class="highcharts-point"></rect><rect x="142" y="144" width="13" height="79" fill="#DC440E" class="highcharts-point"></rect><rect x="169" y="137" width="13" height="86" fill="#DC440E" class="highcharts-point"></rect><rect x="196" y="123" width="13" height="100" fill="#DC440E" class="highcharts-point"></rect><rect x="223" y="111" width="13" height="112" fill="#DC440E" class="highcharts-point"></rect><rect x="250" y="109" width="13" height="114" fill="#DC440E" class="highcharts-point"></rect><rect x="277" y="102" width="13" height="121" fill="#DC440E" class="highcharts-point"></rect><rect x="304" y="100" width="13" height="123" fill="#DC440E" class="highcharts-point"></rect><rect x="331" y="101" width="13" height="122" fill="#DC440E" class="highcharts-point"></rect><rect x="358" y="99" width="13" height="124" fill="#DC440E" class="highcharts-point"></rect><rect x="385" y="100" width="13" height="123" fill="#DC440E" class="highcharts-point"></rect><rect x="412" y="92" width="13" height="131" fill="#DC440E" class="highcharts-point"></rect></g><g class="highcharts-markers highcharts-series-1 highcharts-column-series highcharts-color-undefined " transform="translate(43,109) scale(1 1)" clip-path="none"></g></g><text x="10" text-anchor="start" class="highcharts-title" style="color:#000000;font-size:1.1em;font-weight:bold;fill:#000000;" y="20"><tspan>Mobilfunksendeanlagen</tspan></text><text x="10" text-anchor="start" class="highcharts-subtitle" style="color:#000000;font-size:0.9em;fill:#000000;" y="38"><tspan>Anzahl Anlagen</tspan></text><g class="highcharts-legend" transform="translate(10,40)"><rect fill="none" class="highcharts-legend-box" rx="0" ry="0" x="0" y="0" width="354" height="57" visibility="visible"></rect><g><g><g class="highcharts-legend-item highcharts-column-series highcharts-color-undefined highcharts-series-0" transform="translate(12,7)"><text x="21" style="color:#333333;font-size:1em;font-weight:normal;cursor:pointer;fill:#333333;" text-anchor="start" y="15"><tspan>BS: Mikrozellen (bewilligte Sendeleistung bis 6 Watt ERP)</tspan></text><rect x="2" y="4" width="12" height="12" fill="#FF8028" class="highcharts-point"></rect></g><g class="highcharts-legend-item highcharts-column-series highcharts-color-undefined highcharts-series-1" transform="translate(12,26)"><text x="21" y="15" style="color:#333333;font-size:1em;font-weight:normal;cursor:pointer;fill:#333333;" text-anchor="start"><tspan>BS: Makrozellen (bewilligte Sendeleistung ab 6 Watt ERP)</tspan></text><rect x="2" y="4" width="12" height="12" fill="#DC440E" class="highcharts-point"></rect></g></g></g></g><g class="highcharts-axis-labels highcharts-xaxis-labels "><text x="59.09272486435067" style="color:#000000;cursor:default;font-size:0.9em;fill:#000000;" text-anchor="end" transform="translate(0,0) rotate(-45 59.09272486435067 347)" y="347" opacity="1"><tspan>2000</tspan></text><text x="86.09272486435067" style="color:#000000;cursor:default;font-size:0.9em;fill:#000000;" text-anchor="end" transform="translate(0,0) rotate(-45 86.09272486435067 347)" y="347" opacity="1"><tspan>2001</tspan></text><text x="113.09272486435067" style="color:#000000;cursor:default;font-size:0.9em;fill:#000000;" text-anchor="end" transform="translate(0,0) rotate(-45 113.09272486435067 347)" y="347" opacity="1"><tspan>2002</tspan></text><text x="140.09272486435069" style="color:#000000;cursor:default;font-size:0.9em;fill:#000000;" text-anchor="end" transform="translate(0,0) rotate(-45 140.09272486435069 347)" y="347" opacity="1"><tspan>2003</tspan></text><text x="167.09272486435069" style="color:#000000;cursor:default;font-size:0.9em;fill:#000000;" text-anchor="end" transform="translate(0,0) rotate(-45 167.09272486435069 347)" y="347" opacity="1"><tspan>2004</tspan></text><text x="194.09272486435069" style="color:#000000;cursor:default;font-size:0.9em;fill:#000000;" text-anchor="end" transform="translate(0,0) rotate(-45 194.09272486435069 347)" y="347" opacity="1"><tspan>2005</tspan></text><text x="221.09272486435069" style="color:#000000;cursor:default;font-size:0.9em;fill:#000000;" text-anchor="end" transform="translate(0,0) rotate(-45 221.09272486435069 347)" y="347" opacity="1"><tspan>2006</tspan></text><text x="248.09272486435066" style="color:#000000;cursor:default;font-size:0.9em;fill:#000000;" text-anchor="end" transform="translate(0,0) rotate(-45 248.09272486435066 347)" y="347" opacity="1"><tspan>2007</tspan></text><text x="275.09272486435066" style="color:#000000;cursor:default;font-size:0.9em;fill:#000000;" text-anchor="end" transform="translate(0,0) rotate(-45 275.09272486435066 347)" y="347" opacity="1"><tspan>2008</tspan></text><text x="302.09272486435066" style="color:#000000;cursor:default;font-size:0.9em;fill:#000000;" text-anchor="end" transform="translate(0,0) rotate(-45 302.09272486435066 347)" y="347" opacity="1"><tspan>2009</tspan></text><text x="329.09272486435066" style="color:#000000;cursor:default;font-size:0.9em;fill:#000000;" text-anchor="end" transform="translate(0,0) rotate(-45 329.09272486435066 347)" y="347" opacity="1"><tspan>2010</tspan></text><text x="356.09272486435066" style="color:#000000;cursor:default;font-size:0.9em;fill:#000000;" text-anchor="end" transform="translate(0,0) rotate(-45 356.09272486435066 347)" y="347" opacity="1"><tspan>2011</tspan></text><text x="383.09272486435066" style="color:#000000;cursor:default;font-size:0.9em;fill:#000000;" text-anchor="end" transform="translate(0,0) rotate(-45 383.09272486435066 347)" y="347" opacity="1"><tspan>2012</tspan></text><text x="410.09272486435066" style="color:#000000;cursor:default;font-size:0.9em;fill:#000000;" text-anchor="end" transform="translate(0,0) rotate(-45 410.09272486435066 347)" y="347" opacity="1"><tspan>2013</tspan></text><text x="437.09272486435066" style="color:#000000;cursor:default;font-size:0.9em;fill:#000000;" text-anchor="end" transform="translate(0,0) rotate(-45 437.09272486435066 347)" y="347" opacity="1"><tspan>2014</tspan></text><text x="464.09272486435066" style="color:#000000;cursor:default;font-size:0.9em;fill:#000000;" text-anchor="end" transform="translate(0,0) rotate(-45 464.09272486435066 347)" y="347" opacity="1"><tspan>2015</tspan></text></g><g class="highcharts-axis-labels highcharts-yaxis-labels "><text x="28" style="color:#000000;cursor:default;font-size:0.9em;fill:#000000;" text-anchor="end" transform="translate(0,0)" y="336" opacity="1"><tspan>0</tspan></text><text x="28" style="color:#000000;cursor:default;font-size:0.9em;fill:#000000;" text-anchor="end" transform="translate(0,0)" y="262" opacity="1"><tspan>200</tspan></text><text x="28" style="color:#000000;cursor:default;font-size:0.9em;fill:#000000;" text-anchor="end" transform="translate(0,0)" y="188" opacity="1"><tspan>400</tspan></text><text x="28" style="color:#000000;cursor:default;font-size:0.9em;fill:#000000;" text-anchor="end" transform="translate(0,0)" y="114" opacity="1"><tspan>600</tspan></text></g><g class="highcharts-axis-labels highcharts-yaxis-labels "></g><text x="10" class="highcharts-credits" text-anchor="start" style="cursor:default;color:#000000;font-size:0.8em;fill:#000000;" y="400"><tspan>Quelle: Lufthygieneamt beider Basel</tspan></text></svg>

<svg class="highcharts-root" xmlns="http://www.w3.org/2000/svg" viewBox="0 0 485 415" font-family="Arial" font-size="12">
    <defs>
        <clipPath id="a">
            <path fill="none" d="M0 0h432v222H0z"/>
        </clipPath>
    </defs>
    <rect fill="#fbfbfb" class="highcharts-background" width="485" height="415" rx="0" ry="0"/>
    <path fill="none" class="highcharts-plot-background" d="M43 109h432v222H43z"/>
    <text transform="translate(10 451)" class="highcharts-label" cursor="pointer">
        <tspan>&gt; Indikator-Details</tspan>
    </text>
    <g class="highcharts-grid highcharts-xaxis-grid">
        <path fill="none" class="highcharts-grid-line" d="M69.5 109v222m0-222v222m27-222v222m0-222v222m27-222v222m0-222v222m27-222v222m0-222v222m27-222v222m0-222v222m27-222v222m0-222v222m27-222v222m0-222v222m27-222v222m0-222v222m27-222v222m0-222v222m27-222v222m0-222v222m27-222v222m0-222v222m27-222v222m0-222v222m27-222v222m0-222v222m27-222v222m0-222v222m27-222v222m0-222v222m27-222v222m0-222v222m-432-222v222m0-222v222"/>
    </g>
    <g class="highcharts-grid highcharts-yaxis-grid">
        <path fill="none" stroke="#e6e6e6" class="highcharts-grid-line" d="M43 331.5h432m-432-74h432m-432-74h432m-432-75h432"/>
    </g>
    <path fill="none" class="highcharts-plot-border" d="M43 109h432v222H43z"/>
    <g class="highcharts-axis highcharts-xaxis">
        <path fill="none" class="highcharts-axis-line" stroke="#ccd6eb" d="M43 331.5h432"/>
    </g>
    <g class="highcharts-axis highcharts-yaxis">
        <path fill="none" class="highcharts-axis-line" d="M43 109v222"/>
    </g>
    <g class="highcharts-axis highcharts-yaxis">
        <path fill="none" class="highcharts-axis-line" d="M475 109v222"/>
    </g>
    <g class="highcharts-series-group">
        <g class="highcharts-series highcharts-series-0 highcharts-column-series highcharts-color-undefined highcharts-tracker" transform="translate(43 109)" clip-path="url(#a)">
            <path fill="#FF8028" class="highcharts-point" d="M7 167h13v27H7zm27-11h13v34H34zm27-14h13v41H61zm27-14h13v47H88zm27-26h13v55h-13zm27-18h13v60h-13zm27-9h13v62h-13zm27-16h13v64h-13zm27-12h13v64h-13zm27-1h13v63h-13zm27-7h13v63h-13zm27-2h13v63h-13zm27 1h13v63h-13zm27 0h13v61h-13zm27 1h13v61h-13zm27-8h13v61h-13z"/>
        </g>
        <g class="highcharts-series highcharts-series-1 highcharts-column-series highcharts-color-undefined highcharts-tracker" transform="translate(43 109)" clip-path="url(#a)">
            <path fill="#DC440E" class="highcharts-point" d="M7 194h13v29H7zm27-4h13v33H34zm27-7h13v40H61zm27-8h13v48H88zm27-18h13v66h-13zm27-13h13v79h-13zm27-7h13v86h-13zm27-14h13v100h-13zm27-12h13v112h-13zm27-2h13v114h-13zm27-7h13v121h-13zm27-2h13v123h-13zm27 1h13v122h-13zm27-2h13v124h-13zm27 1h13v123h-13zm27-8h13v131h-13z"/>
        </g>
    </g>
    <text x="10" class="highcharts-title" y="20" color="#000" font-size="1.1em" font-weight="700">
        <tspan>Mobilfunksendeanlagen</tspan>
    </text>
    <text x="10" class="highcharts-subtitle" y="38" color="#000" font-size=".9em">
        <tspan>Anzahl Anlagen</tspan>
    </text>
    <g class="highcharts-legend" transform="translate(10 40)">
        <rect fill="none" class="highcharts-legend-box" rx="0" ry="0" width="354" height="57"/>
        <g class="highcharts-legend-item highcharts-column-series highcharts-color-undefined highcharts-series-0">
            <text x="21" y="15" color="#333" font-size="1em" font-weight="400" cursor="pointer" fill="#333" transform="translate(12 7)">
                <tspan>BS: Mikrozellen (bewilligte Sendeleistung bis 6 Watt ERP)</tspan>
            </text>
            <path fill="#FF8028" class="highcharts-point" d="M14 11h12v12H14z"/>
        </g>
        <g class="highcharts-legend-item highcharts-column-series highcharts-color-undefined highcharts-series-1">
            <text x="21" y="15" color="#333" font-size="1em" font-weight="400" cursor="pointer" fill="#333" transform="translate(12 26)">
                <tspan>BS: Makrozellen (bewilligte Sendeleistung ab 6 Watt ERP)</tspan>
            </text>
            <path fill="#DC440E" class="highcharts-point" d="M14 30h12v12H14z"/>
        </g>
    </g>
    <g class="highcharts-axis-labels highcharts-xaxis-labels" text-anchor="end" color="#000" cursor="default" font-size=".9em">
        <text x="59.093" transform="rotate(-45 59.093 347)" y="347">
            <tspan>2000</tspan>
        </text>
        <text x="86.093" transform="rotate(-45 86.093 347)" y="347">
            <tspan>2001</tspan>
        </text>
        <text x="113.093" transform="rotate(-45 113.093 347)" y="347">
            <tspan>2002</tspan>
        </text>
        <text x="140.093" transform="rotate(-45 140.093 347)" y="347">
            <tspan>2003</tspan>
        </text>
        <text x="167.093" transform="rotate(-45 167.093 347)" y="347">
            <tspan>2004</tspan>
        </text>
        <text x="194.093" transform="rotate(-45 194.093 347)" y="347">
            <tspan>2005</tspan>
        </text>
        <text x="221.093" transform="rotate(-45 221.093 347)" y="347">
            <tspan>2006</tspan>
        </text>
        <text x="248.093" transform="rotate(-45 248.093 347)" y="347">
            <tspan>2007</tspan>
        </text>
        <text x="275.093" transform="rotate(-45 275.093 347)" y="347">
            <tspan>2008</tspan>
        </text>
        <text x="302.093" transform="rotate(-45 302.093 347)" y="347">
            <tspan>2009</tspan>
        </text>
        <text x="329.093" transform="rotate(-45 329.093 347)" y="347">
            <tspan>2010</tspan>
        </text>
        <text x="356.093" transform="rotate(-45 356.093 347)" y="347">
            <tspan>2011</tspan>
        </text>
        <text x="383.093" transform="rotate(-45 383.093 347)" y="347">
            <tspan>2012</tspan>
        </text>
        <text x="410.093" transform="rotate(-45 410.093 347)" y="347">
            <tspan>2013</tspan>
        </text>
        <text x="437.093" transform="rotate(-45 437.093 347)" y="347">
            <tspan>2014</tspan>
        </text>
        <text x="464.093" transform="rotate(-45 464.093 347)" y="347">
            <tspan>2015</tspan>
        </text>
    </g>
    <g class="highcharts-axis-labels highcharts-yaxis-labels" text-anchor="end" color="#000" cursor="default" font-size=".9em">
        <text x="28" y="336">
            <tspan>0</tspan>
        </text>
        <text x="28" y="262">
            <tspan>200</tspan>
        </text>
        <text x="28" y="188">
            <tspan>400</tspan>
        </text>
        <text x="28" y="114">
            <tspan>600</tspan>
        </text>
    </g>
    <text x="10" class="highcharts-credits" y="400" cursor="default" color="#000" font-size=".8em">
        <tspan>Quelle: Lufthygieneamt beider Basel</tspan>
    </text>
</svg>
